X: 30226
T: Old Ireland, A Long Farewell
R: reel
M: 4/4
K: Gmajor
dc|B2 e2 A2 GF|G3 A Bcdg|e2 c2 A3G|
F2 D2 D2 dc|B2 e2 A2 GF|G3 A Bcdg|e2 c2 A3 F|G12||
ef|g2 g2 g2 fe|f2 f2 f2 ed|e2 e2 cdec|d2 B2 B2 AB|
c2 d2 e2 dc|BAGA Bcdg|e2 c2 A3 F|G12||

